-----BEGIN PGP MESSAGE-----

hQIMA6TFno3LGQl3AQ/+NRtQkvfDukPVJ44udzSrTGbV8pqR23lyKFL7GiY1YprP
DoI9Amd9z6L1tF8XFbgrIZANtgQmW5haMZiHGv/0b3yveaS6mW8SOy3prIUwldXo
pBh4B1msUnJS5sxgsb2ZKn9mE3UZBg6I8RhUWGtWUK7f9abjUvMT4b62tIvMxMja
dkTGlhqUq6Uua9tiGQSDx2sOLWfq8LHtufxsx6wMhoN90syJVbyrkWYUPi6wBj4V
hhfLzYXjtaeX6wvDDPjOms/Np7/hYzPo5k3dyxAswFUpIyk+/euiWzKpx/YokMDC
adyltGZVfdcOaBxn+Sj18v1EH9yo7bJYDH34EwkBL4r2m4ZwFLZYz35FeV89l3yb
zX0C9HIE3Ed86Ktq8y8GxpayLb1hPUCElY5NvaanbHt7GXyVbt64LrKGFovlIcXc
sehTYvTSw4JQwP7xcWROXCHz6/HFBx/w71eSV75DjqL8PNBywe8syqEhxbAKngvP
HWO0A9kZSYyQWCMzJl8WBqOO7QK8wmeCorMaM6HpXc0TQxk+S7CQJue6fFS3v3t4
GEukygqkGV2UvcWHo+A0zAdNXp50oWRHbixNa2o+Io14SDchEK75Fi4BLB2NiJkp
rB7OA4MFygE7D+keQe6JzUG7SeFVy4bn03vaFYBbe6O0u5Pk2KNfziax/J1Rvu/U
6gEJAhAATPgPlqdH87Qt4FPY18+6PHa0UGYGX/nrBOoCOHfADWMENnJmHVeFUoLH
J9mSYPRmw+eNGB8ZIJN/GD3i7oprMenuumJ5w0/8wKsxZzgYUWhxWh73LvKs2iA+
N3eWnAAKfrxHS6WIls8lNSDfxA/eoJzz1Okrsp+cOc+FUDQcAE4qPW9RxdXve+Hk
SpD3aBlZkMLgHCR8pbCWepcJKRMc1JkK+lo5R2IFSfWh55ywLTJmhGGVrK0KxpPw
awP92VP51roCL97VgcyKRYVM3B9eNjMY6OA6U8+0YYPbWdMgPxUcjydnYpdWrzI2
xy9w3j7WoMd4VJchL9LvfJ3FHce12M0k/FczOJORwQvq22rjI5ruQK5JSRGNU34u
R1l6JkTz/hxOTb3prhlsT9L704EJ06KDu0xPMUCyYztLriDtYMaxdMKQs0sVBN9L
ajbpH9RXGclYPHcSr+LnwmELa5OYkl+1DzIh+PURNRBHzUX3TIoXJBzLo3IW7vcw
8IsBKPGP4WTsVs4UnaZdb4JyYtj3MrMaBqOYwly5JwktIiE0wJ3IjxMOewR39gFp
A441MJwXWwNnvudE7x3u/OASJwOYFWn3TaDho8TdZJR4TUWEAjevJ0SlPJqyFDsD
1GSGyV6K0OMbtAQezIAtln1PsSF6wgHnO43HfUlE9RVD3OgxMTajNmVa330/Kjfm
4hGy2EMnfQAuSH8uDnuDPJnMJXiZHYWhDiQYwdu57sQR3bKPVaqMyQmQzdqTPE48
dEkLsul2JL7/Qny7chh0vdWYF0Q7m79ISSE0PKtOEWBD9AvHyVZZe2FZtIRqmxxr
e22TjAaGLplFOLTy6UfOnKzNmVRwzG/ymmdEurCR8wMB8FgfNL3mfIWI5Pw79n3t
z9K/xEntOnAsdd6/KMNnO/ZLYP/84+qCYw7ApwRtyI9cLgXi6LhMN95XA+hFbK79
qA/yw6uY6bwCDZfYZwl63DwGJxXCKxWcSX0InWPCCuk+wXdBoCJ9ZUsIs0G8JXuT
mVU2uoB24EQc3y+13aPyXBbLU3Uk9RUDbfR7QvoUgXpjNYt9wgVB8U1WZ4zqWV6u
6y0jmsxQ+nP05nSdu7+YOLwQFSW9sZa65sU7wwb5BjfOt2TFyCH9wMwwyde+S6US
WRmkSQ/uZ8ISOlUcENe7lPb9dgEBuyWDILQTiFdkw4FJGqS9PqBhq/K+PudvN+Bz
kVOur5pwtRdEEpBXdGOP4+UG6jIwr0jQe663DYPggDm2tBxmmpr43S+WtfAFh84X
9pylfl2DEwo3ibivpQrRCxomqlIVpBX9sNILjdMBZ3S8VJJWYwvs08qihYaJby88
h8kGe0EE7UseRY0mrdGc6XB99AMgcPXchTdybQQnzv13pBQZCks1E2bOvLxqeYX7
nqC1AePfRs2FS504zdx6kHpCdpSaHwaJ4J7wy+PIc6r7HAtto2MARGVPAOTq2NPO
9fEwmNJvXJ/LVkk7udMT/+wbdazUqOGBorrzPy6WBF3yEg0FTj4mp1DITBs1YWo=
=ew50
-----END PGP MESSAGE-----
